X:1
T:[ID 4-11r]
T:[ID 4-11r]
T:Bezeichnung standardisiert: Menuet [mit Trio] Menuet Con Trio 3.
T:Urheber unbekannt Datum in der hier transkribierten schriftlichen Quelle: 1767
C:Urheber unbekannt
C:Datum in der hier transkribierten schriftlichen Quelle: 1767
L:1/8
M:3/4
K:D
V:1 treble 
V:1
 a2 a2 a2 | agfgaf | g2 g2 g2 | gfefge | fa A4 | (3Bcd (3efg d2 | ef g2 f2 |{f} e6 :: e2 e2 e2 | %9
 edcdec | d2 d2 d2 | dcBcdB | A2 a2 a2 | agfgaf | egfedc | d6 :|[M:3/4]"^Trio" !fermata!C2 D2 FD | %17
 C2 D2 GE | C2 F2 (3FGA |{B} A4 G2 | Fd Td4 |{d} c2 BA^GA | BdcBA^G | A6 :: e4 =G2 |{A} GF F4 | %26
{c} d4 F2 |{G} FE E4 | C2 D2 FD | C2 D2 GE |{G} F2 EDEC | D6 :| %32

